X:1
T:[ID 7-72a]
T:[ID 7-72a]
T:Bezeichnung standardisiert: Menuett Menuet No 1. ex A. #. In dieser Quelle auch als: Menuetto
T:Urheber unbekannt Datum in der hier transkribierten schriftlichen Quelle: 1776 - 1791
C:Urheber unbekannt
C:Datum in der hier transkribierten schriftlichen Quelle: 1776 - 1791
L:1/8
M:3/4
K:A
V:1 treble 
V:1
 A3 agf | .e2 .d2 .cB | A3 agf | .e2 .d2 .c2 | fdfg a2 | eceg a2 | d2 fedc | Tc4 B2 :: E4 e2 | %9
 (ed)(dc) c2 | E4 d2 | (dc)(cB) B2 | A3 agf | .e2 .d2 .c2 | (3fed c2 (3dcB | TB4 A2 :| %16

